X:1
T:O Virgo splendens
T:Llibre vermell de Montserrat
%%score [ 1 2 3 ]
L:1/8
Q:1/4=60
M:9/8
K:C
V:1 treble nm="I"
V:2 treble nm="II"
V:3 treble nm="III"
V:1
 (FGFAGAFGF | FDED) (CD) D3 | (DCDFGF) (AGA | FAGAcA) A3 | (BcA) (AGAcdA | AF) (ED) (CD) D3 | %6
w: O _ _ _ _ _ _ _ _|_ _ _ _ Vir- * go|splen- * * * * * dens, _ _|_ _ _ _ _ _ hic|in * * mon- * * * * *|* * te * cel- * so|
 G (FD) F (GF) (EDF | DAGF) (GA) A3 | (GA) (Ac) (Bc) (cdA) | F (DEFGD) D3 | (ED) (DCDC) (EDD | %11
w: mi- ra- * cu- lis * ser- * *|* * * * ra- * to|ful- * gen- * ti- * bus * *|u- bi- * * * * que,|quem _ fi- * * * de- * *|
 AAGAGA) A3 | (CD) (FG) (FECD) D | D (FGFED) D3 | (GFAGABcA) F | A (AG) (Acd) A3 | %16
w: * * * * * * les|con- * scen- * dunt _ _ _ u|ni- ver- * * * * si.|E- * * * * * * * ia|pi- e- * ta- * * tis|
 (dccBA) (GA) (AF) | (FGF) (FAG) A3 | GA (AB) c (dA) F F | (DCDF) F E D3 | G (FD) D E D D (DF | %21
w: o- * * * * cu- * lo *|pla- * * ca- * * to|cer- ne li- * ga- tus * fu- ne|pec- * * * ca- to- rum,|ne in- * fer- no- rum i- cti- *|
 A) (AGF) D C D3 | C D F (FG) F (AFA | cABABc) A3 | (GA) F (FEF) (DAD | CDEDDC) D3 | z9 | z9 | z9 | %29
w: * bus * * gra- ven- tur,|sed cum be- a- * tis tu- * *|* * * * * * a|pre- * ce vo- * * cen- * *|* * * * * * tur.||||
 z9 |] %30
w: |
V:2
 z9 | z9 | (FGFAGAFGF | FDED) (CD) D3 | (DCDFGF) (AGA | FAGAcA) A3 | (BcA) (AGAcdA | %7
w: ||O _ _ _ _ _ _ _ _|_ _ _ _ Vir- * go|splen- * * * * * dens, _ _|_ _ _ _ _ _ hic|in * * mon- * * * * *|
 AF) (ED) (CD) D3 | G (FD) F (GF) (EDF | DAGF) (GA) A3 | (GA) (Ac) (Bc) (cdA) | F (DEFGD) D3 | %12
w: * * te * cel- * so|mi- ra- * cu- lis * ser- * *|* * * * ra- * to|ful- * gen- * ti- * bus _ _|u- bi- * * * * que,|
 (ED) (DCDC) (EDD | AAGAGA) A3 | (CD) (FG) (FECD) D | D (FGFED) D3 | (GFAGABcA) F | %17
w: quem * fi- * * * de- * *|* * * * * * les|con- * scen- * dunt _ _ _ u|ni- ver- * * * * si.|E- * * * * * * * ia|
 A (AG) (Acd) A3 | (dccBA) (GA) (AF) | (FGF) (FAG) A3 | G A (AB) c (dA) F F | (DCDF) F E D3 | %22
w: pi- e- * ta- * * tis|o- * * * * cu- * lo _|pla- * * ca- * * to|cer- ne li- * ga- tus * fu- ne|pec- * * * ca- to- rum,|
 G (FD) D E D D (DF | A) (AGF) D C D3 | C D F (FG) F (AFA | cABABc) A3 | (GA) F (FEF) (DAD | %27
w: ne in- * fer- no- rum i- cti- *|* bus * * gra- ven- tur,|sed cum be- a- * tis tu- * *|* * * * * * a|pre- * ce vo- * * cen- * *|
 CDEDDC) D3 | z9 | z9 |] %30
w: * * * * * * tur.|||
V:3
 z9 | z9 | z9 | z9 | (FGFAGAFGF | FDED) (CD) D3 | (DCDFGF) (AGA | FAGAc A) A3 | (BcA) (AGAcdA | %9
w: ||||O _ _ _ _ _ _ _ _|_ _ _ _ Vir- * go|splen- * * * * * dens, _ _|_ _ _ _ _ _ hic|in * * mon- * * * * *|
 AF) (ED) (CD) D3 | G (FD) F (GF) (EDF | DAGF) (GA) A3 | (GA) (Ac) (Bc) (cdA) | F (DEFGD) D3 | %14
w: * * te * cel- * so|mi- ra- * cu- lis * ser- * *|* * * * ra- * to|ful- * gen- * ti- * bus * *|u- bi- * * * * que,|
 (ED) (DCDC) (EDD | AAGAGA) A3 | (CD) (FG) (FECD) D | D (FGFED) D3 | (GFAGABcA) F | %19
w: quem * fi- * * * de- * *|* * * * * * les|con- * scen- * dunt _ _ _ u|ni- ver- * * * * si.|E- * * * * * * * ia|
 A (AG) (Acd) A3 | (dccBA) (GA) (AF) | (FGF) (FAG) A3 | G A (AB) c (dA) F F | (DCDF) F E D3 | %24
w: pi- e- * ta- * * tis|o- * * * * cu- * lo _|pla * * ca- * * to|cer- ne li- * ga- tus * fu- ne|pec- * * * ca- to- rum,|
 G (FD) D E D D (DF | A) (AGF) D C D3 | C D F (FG) F (AFA | cABABc) A3 | (GA) F (FEF) (DAD | %29
w: ne in- * fer- no- rum i- cti- *|* bus * * gra- ven- tur,|sed cum be- a- * tis tu- * *|* * * * * * a|pre- * ce vo- * * cen- * *|
 CDEDDC) D3 |] %30
w: * * * * * * tur.|

